src/assets/images/footer/telegram.svg

<svg width="24" height="24" viewBox="0 0 24 24" fill="none" xmlns="http://www.w3.org/2000/svg">
<path d="M11.96 0.960022C5.89049 0.960022 0.959961 5.89056 0.959961 11.96C0.959961 18.0295 5.89049 22.96 11.96 22.96C18.0294 22.96 22.96 18.0295 22.96 11.96C22.96 5.89056 18.0294 0.960022 11.96 0.960022ZM11.96 1.91654C17.5125 1.91654 22.0034 6.4075 22.0034 11.96C22.0034 17.5125 17.5125 22.0035 11.96 22.0035C6.40743 22.0035 1.91648 17.5125 1.91648 11.96C1.91648 6.4075 6.40743 1.91654 11.96 1.91654ZM16.3063 6.71597C15.9792 6.71597 15.6116 6.79173 15.1817 6.94669C14.514 7.18725 6.66118 10.5215 5.76779 10.9007C5.25701 11.1179 4.30592 11.5218 4.30592 12.485C4.30592 13.1235 4.68005 13.5801 5.41657 13.8432C5.81257 13.9843 6.75309 14.2693 7.29879 14.4195C7.53026 14.4831 7.77625 14.5157 8.02925 14.5157C8.52425 14.5157 9.0224 14.3924 9.41266 14.1748C9.40931 14.2551 9.4115 14.3363 9.42107 14.4176C9.47989 14.9198 9.78955 15.3921 10.2487 15.6815C10.549 15.8709 13.0022 17.5146 13.3686 17.7757C13.8832 18.1435 14.4521 18.3381 15.0126 18.3381C16.0839 18.3381 16.4433 17.2319 16.6165 16.7006C16.8676 15.9292 17.8078 9.65583 17.9139 8.54961C17.9862 7.79157 17.6702 7.16735 17.0686 6.87943C16.8433 6.77087 16.5861 6.71597 16.3063 6.71597ZM16.3063 7.67249C16.4379 7.67249 16.5553 7.69424 16.6548 7.74255C16.881 7.85111 16.9961 8.09313 16.9611 8.459C16.8454 9.66566 15.9075 15.7904 15.7076 16.4045C15.5364 16.9296 15.356 17.3816 15.0126 17.3816C14.6692 17.3816 14.2941 17.2612 13.9244 16.9967C13.5547 16.7327 11.0997 15.0864 10.7587 14.8716C10.4598 14.6832 10.1434 14.2135 10.5887 13.7591C10.9555 13.3851 13.7381 10.6845 13.9758 10.4468C14.1527 10.2693 14.07 10.0554 13.8964 10.0554C13.8366 10.0554 13.765 10.0806 13.6909 10.1413C13.4001 10.379 9.34616 13.0917 8.99512 13.3098C8.76268 13.4542 8.40278 13.5583 8.02925 13.5583C7.86999 13.5583 7.70875 13.5392 7.5538 13.4966C7.01432 13.3479 6.10136 13.0709 5.73883 12.9418C5.39018 12.8174 5.26337 12.6983 5.26337 12.485C5.26337 12.1818 5.69137 11.9725 6.14237 11.7807C6.61871 11.5784 14.8611 8.07819 15.5058 7.84623C15.8043 7.73814 16.0773 7.67249 16.3063 7.67249Z" fill="#E5E5E5"/>
</svg>

<svg width="24" height="24" fill="none" xmlns="http://www.w3.org/2000/svg"><path d="M11.96.96c-6.07 0-11 4.93-11 11s4.93 11 11 11 11-4.93 11-11-4.93-11-11-11Zm0 .957A10.036 10.036 0 0 1 22.003 11.96c0 5.552-4.49 10.043-10.043 10.043A10.036 10.036 0 0 1 1.916 11.96c0-5.553 4.491-10.043 10.044-10.043Zm4.346 4.799c-.327 0-.694.076-1.124.23-.668.241-8.52 3.575-9.414 3.955-.511.217-1.462.62-1.462 1.584 0 .639.374 1.095 1.11 1.358.397.141 1.337.426 1.883.576a2.906 2.906 0 0 0 2.114-.245 1.53 1.53 0 0 0 .008.244c.059.502.369.974.828 1.264.3.189 2.753 1.833 3.12 2.094.514.367 1.083.562 1.644.562 1.07 0 1.43-1.106 1.603-1.637.252-.772 1.192-7.045 1.298-8.151.072-.758-.244-1.383-.845-1.67a1.744 1.744 0 0 0-.763-.164Zm0 .956c.132 0 .25.022.349.07.226.11.341.351.306.717-.116 1.207-1.053 7.331-1.253 7.945-.172.526-.352.978-.695.978-.344 0-.719-.12-1.089-.385-.37-.264-2.824-1.91-3.165-2.125-.3-.189-.616-.659-.17-1.113.367-.374 3.15-3.075 3.387-3.312.177-.178.094-.392-.08-.392a.332.332 0 0 0-.205.086c-.29.238-4.345 2.95-4.696 3.169-.232.144-.592.248-.966.248-.159 0-.32-.019-.475-.061a36.233 36.233 0 0 1-1.815-.555c-.349-.125-.476-.244-.476-.457 0-.303.428-.512.88-.704.476-.203 8.718-3.703 9.363-3.935.298-.108.571-.174.8-.174Z" fill="#E5E5E5"/></svg>
